X:164
T:Jig Away the Donkey
Z: id:dc-reel-151
M:C
L:1/8
K:D Major
E|F3d cAAB|cAcA cAGE|F3d cAAB|cAGE FDD:|!
A|defg a2ba|gfed cdeA|defg a3A|ABAG FDDA|!
defg a2ba|gfed cdeg|a3g e3d|cAGE FDD|]!

